X: 18025
T: Hull's
R: reel
M: 4/4
K: Dmajor
B|ADDB A3B|AD D2 BABd|AD D2 A2 FA|BABd edef|
ADDB A3B|AD D2 BABd|efed B2 ef|1 dBBA BddB:|2 dBBA Bdde||
|:fA A2 f2 ed|eB B2 e3f|eB B2 B2 AB|dA A2 ABde|
fA A2 f2 ed|eB B2 e3d|efed B2 ef|1 dBBA Bdde:|2 dBBA BddB||

